X:1
T:My Ship Is Coming In
T:My Ship Is Coming In
T:Ira David Sankey
T:Harriet E. Banning, 1901
T:Public Domain Courtesy of the Cyber Hymnal™
C:Ira David Sankey
Z:Public Domain
Z:Courtesy of the Cyber Hymnal™
%%score ( 1 2 ) ( 3 4 )
L:1/8
Q:1/4=100
M:6/8
K:G
V:1 treble 
V:2 treble 
V:3 bass 
V:4 bass 
V:1
 D | D2 [GB] [Gc]2 [GB] | [GB]2 [FA] [FA]2 G | [DF]2 [FA] [Fd]2 [Ac] | [GB]4 z D | %5
w: 1.~My|ship is com- ing|in at last, My|ship that sailed a-|far, With|
w: 2.~With|ice bound hull and|storm rent sail, All|bat- tered by the|sea, With|
w: 3.~And|when she’s an- chored|safe in port, With|all her sails un-|bent, And|
w: 4.~Oh,|sweet con- tent! Oh,|vi- sion fair! Rest|from the life- long|strife; The|
 (DD)[GB] [GB]2 [=Fd] | [Ed]2 [Ec] [Ec]2 [EA] | [DG]2 [DB] [DB]2 [CA] | [B,G]4 z || %9
w: spread- * ing sail and|fa- voring gale She’s|sail- ing o’er the|bar.|
w: wind- * swept deck, al-|most a wreck, She’s|com- ing back to|me.|
w: ended * the long un-|cer- tain- ty, Then|I shall be con-|tent.|
w: peace * of God, the|Lord’s “Well done,” The|joy of end- less|life.|
"^Refrain" [DB] | [Gd]<[Gd]-[Gd] [GB]2 z | [Gd]<[Gd]-[Gd] [GB]2 z | [Gd]>[G^c][Gd] [Ge]2 [Gd] | %13
w: ||||
w: She’s|com- ing * in,|com- ing * in,|O- ver the har- bor|
w: ||||
w: ||||
 [FA]4 z [FA] | [GB] [GB]2 [GB]2 [=Fd] | [Ed] [Ec]2 !fermata![Ge]2 [Ge] | [Gd]2 [DB] [DB]2 [CA] | %17
w: ||||
w: bar! She’s|com- ing in, she’s|com- ing in, My|ship that sailed a-|
w: ||||
w: ||||
 [B,G]4 z |] %18
w: |
w: far.|
w: |
w: |
V:2
 D | D2 x4 | x5 G | x6 | x5 D | DD x4 | x6 | x6 | x5 || x | x6 | x6 | x6 | x6 | x6 | x6 | x6 | %17
 x5 |] %18
V:3
 [G,B,] | [G,B,]2 [G,D] [G,E]2 [G,D] | [D,D]2 [D,C] [D,C]2 [D,B,] | [D,A,]2 [D,D] [D,D]2 [D,D] | %4
 [G,D]4 z [G,B,] | ([G,B,][G,B,])[G,D] [G,D]2 [B,,G,] | [C,G,]2 [C,G,] [C,G,]2 [C,C] | %7
 [D,B,]2 [D,G,] [D,F,]2 [D,F,] | [G,,G,]4 z || G, | [G,B,]<[G,B,]-[G,B,] [G,D]2 z | %11
 [G,B,]<[G,B,]-[G,B,] [G,D]2 z | [G,B,]>[G,^A,][G,B,] [C,C]2 [B,,D] | [D,D]4 z [D,D] | %14
 [G,D] [G,D]2 [G,D]2 [B,,G,] | [C,G,] [C,G,]2 [C,C]2 [C,A,] | [D,B,]2 [D,G,] [D,F,]2 [D,F,] | %17
 [G,,G,]4 z |] %18
V:4
 x | x6 | x6 | x6 | x6 | x6 | x6 | x6 | x5 || G, | x6 | x6 | x6 | x6 | x6 | x6 | x6 | x5 |] %18

